icons/bullhorn.svg

<svg width="32" height="32" viewBox="0 0 32 32" fill="none" xmlns="http://www.w3.org/2000/svg">
<path d="M3.36667 28.6333C0.913333 26.18 0 22.18 0 16C0 9.82 0.913333 5.82 3.36667 3.36667C5.82 0.913333 9.82 0 16 0C22.18 0 26.18 0.913333 28.6333 3.36667C31.0867 5.82 32 9.82 32 16C32 22.18 31.0867 26.18 28.6333 28.6333C26.18 31.0867 22.18 32 16 32C9.82 32 5.82 31.0867 3.36667 28.6333Z" fill="#F5F5F5"/>
<path fill-rule="evenodd" clip-rule="evenodd" d="M7.32666 17.64C7.32666 17.64 11.7467 14.9333 13.3333 11.3933C14.1533 13.9267 14.5 14.78 14.5 14.78C14.5 14.78 10.7667 18.2733 7.81333 19.56L7.33333 17.6467L7.32666 17.64Z" fill="#FF866A"/>
<path fill-rule="evenodd" clip-rule="evenodd" d="M21.7667 12.4C23.9933 16.26 24.46 20.16 22.8 21.12C21.14 22.0733 17.9933 19.7267 15.7667 15.8667C13.54 12.0067 13.0733 8.10667 14.7333 7.14667C16.3933 6.19334 19.54 8.54 21.7667 12.4Z" fill="#C1462C"/>
<path fill-rule="evenodd" clip-rule="evenodd" d="M5.85333 21.6267C5.10666 20.34 4.96666 19.0067 5.23999 18.2667C5.31999 18.0533 5.39999 17.92 5.49333 17.8333L4.33333 18.5067C3.16666 19.18 2.99999 21.0667 3.95333 22.7267C4.91333 24.3867 6.63333 25.18 7.79999 24.5067L8.99999 23.8133C8.83999 23.8733 8.68666 23.8733 8.46666 23.8333C7.68666 23.7 6.60666 22.9133 5.85999 21.62" fill="#FF5B36"/>
<path fill-rule="evenodd" clip-rule="evenodd" d="M18.26 12.3733L16.8067 12.7C17.0533 13.3467 17.38 14.0533 17.78 14.7467C18.18 15.44 18.62 16.0667 19.0667 16.6133L20.08 15.5133C20.2133 15.3667 20.2533 15.1467 20.1667 14.9667C19.98 14.56 19.7667 14.1467 19.5333 13.7333C19.2933 13.32 19.04 12.9333 18.78 12.5667C18.66 12.4067 18.46 12.3267 18.26 12.3733Z" fill="#FF5B36"/>
<path fill-rule="evenodd" clip-rule="evenodd" d="M22.3933 20.4133C21.3867 20.9934 18.4133 18.98 16.4267 15.5267C14.4333 12.0733 14.2133 8.47335 15.18 7.91335C16.1467 7.35335 19.1533 9.35335 21.14 12.8067C23.1333 16.26 23.4 19.8333 22.3933 20.4133ZM13.8667 14.4733C12.1133 16.32 9.33333 18.1067 8.18 18.8133C8.06667 18.4867 7.96667 18.1067 7.92667 17.7333C10.92 15.8733 12.3933 14.2133 13.2267 12.7333C13.36 13.18 13.6 13.86 13.8667 14.4733ZM14.1 6.33335C13.64 6.60002 13.4 7.08668 13.24 7.59335C12.9667 8.44668 13.0533 9.36668 12.6267 10.66C11.86 12.9733 10.0733 15.2 7.8 16.5133L6.44 17.3C5.86 17.6333 5.72667 19.5 6.68667 21.16C7.40667 22.4 8.52667 23.1733 9.28667 23.34C9.42667 23.3667 9.59333 23.4333 9.72667 23.5933C9.96667 23.8867 10.2533 24.22 10.56 24.5534C11.6333 25.7134 12.7667 26.6333 13.8467 27.2467C14.18 27.4333 14.5867 27.4533 14.94 27.2933C15.52 27.0267 16.0467 26.7667 16.52 26.5267C16.7733 26.4 16.7733 26.04 16.52 25.9067C15.8667 25.56 15.2 25.0933 14.5333 24.5333C14.5333 24.5333 14.6133 24.3467 14.6667 24.1467C14.68 24.0867 14.6933 24.0333 14.7067 23.9867C14.7333 23.8667 14.6867 23.74 14.6 23.6533C14.44 23.5 14.2733 23.3467 14.12 23.1867C13.8667 22.9267 13.4667 22.8734 13.1533 23.0534C13.12 23.0734 13.0867 23.0933 13.0533 23.1067C12.7667 22.8 12.58 22.58 12.3867 22.3533C12.3067 22.26 12.2333 22.1667 12.1467 22.06C14.24 21.1067 16.6533 20.8267 18.74 21.26C20.0667 21.5333 20.8267 22.0733 21.7 22.26C22.2133 22.3733 22.76 22.4133 23.22 22.1467C25.3267 20.9267 24.9933 16.4067 22.4733 12.04C19.9533 7.67335 16.2 5.12668 14.0933 6.34002" fill="#FF5B36"/>
<path fill-rule="evenodd" clip-rule="evenodd" d="M26.8533 8.56668L24.46 10.06C24.12 10.26 24 10.7 24.2 11.04C24.4 11.38 24.84 11.5 25.18 11.3L27.6667 9.97335C27.9067 9.84668 27.9933 9.54001 27.86 9.30001L27.5333 8.73335C27.3933 8.49335 27.0867 8.42001 26.8533 8.56668Z" fill="#FF5B36"/>
<path fill-rule="evenodd" clip-rule="evenodd" d="M29.1933 14.7334L26.4 15.12C26.0066 15.16 25.72 15.5134 25.76 15.9067C25.8 16.3 26.1533 16.5867 26.5466 16.5467L29.36 16.3534C29.6333 16.3334 29.84 16.0934 29.8066 15.82L29.74 15.1667C29.7133 14.8934 29.46 14.7 29.1933 14.7334Z" fill="#FF5B36"/>
<path fill-rule="evenodd" clip-rule="evenodd" d="M21.7867 7.11334L23.5133 4.88668C23.68 4.66668 23.64 4.35334 23.4133 4.19334L22.88 3.80668C22.66 3.64668 22.3467 3.70001 22.1933 3.92668L20.62 6.26668C20.3867 6.58668 20.46 7.04001 20.78 7.27334C21.1 7.50668 21.5533 7.43334 21.7867 7.11334Z" fill="#FF5B36"/>
</svg>

<svg xmlns="http://www.w3.org/2000/svg" width="32" height="32" fill="none" viewBox="0 0 32 32">
  <path fill="#F5F5F5" d="M3.367 28.633C.913 26.18 0 22.18 0 16 0 9.82.913 5.82 3.367 3.367 5.82.913 9.82 0 16 0c6.18 0 10.18.913 12.633 3.367C31.087 5.82 32 9.82 32 16c0 6.18-.913 10.18-3.367 12.633C26.18 31.087 22.18 32 16 32c-6.18 0-10.18-.913-12.633-3.367Z"/>
  <path fill="#FF866A" fill-rule="evenodd" d="M7.327 17.64s4.42-2.707 6.006-6.247c.82 2.534 1.167 3.387 1.167 3.387s-3.733 3.493-6.687 4.78l-.48-1.913-.006-.007Z" clip-rule="evenodd"/>
  <path fill="#C1462C" fill-rule="evenodd" d="M21.767 12.4c2.226 3.86 2.693 7.76 1.033 8.72-1.66.953-4.807-1.393-7.033-5.253-2.227-3.86-2.694-7.76-1.034-8.72 1.66-.954 4.807 1.393 7.034 5.253Z" clip-rule="evenodd"/>
  <path fill="#FF5B36" fill-rule="evenodd" d="M5.853 21.627c-.746-1.287-.886-2.62-.613-3.36.08-.214.16-.347.253-.434l-1.16.674c-1.166.673-1.333 2.56-.38 4.22.96 1.66 2.68 2.453 3.847 1.78l1.2-.694c-.16.06-.313.06-.533.02-.78-.133-1.86-.92-2.607-2.213m12.4-9.247-1.453.327c.246.647.573 1.353.973 2.047.4.693.84 1.32 1.287 1.866l1.013-1.1a.5.5 0 0 0 .087-.546c-.187-.407-.4-.82-.634-1.234-.24-.413-.493-.8-.753-1.166a.504.504 0 0 0-.52-.194Z" clip-rule="evenodd"/>
  <path fill="#FF5B36" fill-rule="evenodd" d="M22.393 20.413c-1.006.58-3.98-1.433-5.966-4.886-1.994-3.454-2.214-7.054-1.247-7.614.967-.56 3.973 1.44 5.96 4.894 1.993 3.453 2.26 7.026 1.253 7.606Zm-8.526-5.94c-1.754 1.847-4.534 3.634-5.687 4.34a5.014 5.014 0 0 1-.253-1.08c2.993-1.86 4.466-3.52 5.3-5 .133.447.373 1.127.64 1.74Zm.233-8.14c-.46.267-.7.754-.86 1.26-.273.854-.187 1.774-.613 3.067-.767 2.313-2.554 4.54-4.827 5.853l-1.36.787c-.58.333-.713 2.2.247 3.86.72 1.24 1.84 2.013 2.6 2.18a.74.74 0 0 1 .44.253c.24.294.526.627.833.96 1.073 1.16 2.207 2.08 3.287 2.694.333.186.74.206 1.093.046.58-.266 1.107-.526 1.58-.766a.348.348 0 0 0 0-.62c-.653-.347-1.32-.814-1.987-1.374 0 0 .08-.186.134-.386a2.07 2.07 0 0 1 .04-.16.368.368 0 0 0-.107-.334c-.16-.153-.327-.306-.48-.466a.798.798 0 0 0-.967-.134.725.725 0 0 1-.1.054c-.286-.307-.473-.527-.666-.754-.08-.093-.154-.186-.24-.293 2.093-.953 4.506-1.233 6.593-.8 1.327.273 2.087.813 2.96 1 .513.113 1.06.153 1.52-.113 2.107-1.22 1.773-5.74-.747-10.107-2.52-4.367-6.273-6.913-8.38-5.7m12.76 2.227L24.46 10.06c-.34.2-.46.64-.26.98.2.34.64.46.98.26l2.487-1.327a.493.493 0 0 0 .193-.673l-.327-.567a.485.485 0 0 0-.68-.166Zm2.34 6.166-2.793.387a.718.718 0 0 0 .147 1.427l2.813-.194a.48.48 0 0 0 .447-.533l-.067-.653a.49.49 0 0 0-.547-.434Zm-7.406-7.62 1.726-2.226a.486.486 0 0 0-.1-.694l-.533-.386a.486.486 0 0 0-.687.12l-1.573 2.34a.723.723 0 0 0 .16 1.006c.32.234.773.16 1.007-.16Z" clip-rule="evenodd"/>
</svg>
